X: 744
T: Hua li qiang
%%abc-version 2.0
%%abcx-abcm2ps-target-version 5.9.1 (29 Sep 2008)
%%abc-creator hum2abc beta
%%abcx-conversion-date 2013/10/02 07:52:30
%%abc-edited-by Helmut Schaffrath
%%humdrum-veritas 1834030023
%%humdrum-veritas-data 2342901099
%%continueall 1
%%barnumbers 0
L: 1/8
M: 2/4
K: G
d/ e/d3 [I:setbarnb 1]| 
d/ e/ Bd2 | 
B A/ G/ A B | 
e2z2 | 
B G A A/ B/ | 
B< GA2 | 
B E E D | 
G2z2 |]  



